X: 2417
T: Ballantyne's Rant
R: hornpipe
M: 4/4
K: Dmajor
|:fe|d2 AA F2 AA|G2 BG F2 AF|A2 df gfed|c2 e2 e2 fe|
d2 AA F2 AA|G2 BG F2 AF|A2 df gfec|(3efe d2 d2:|
|:A2|d2 d2 fede|f2 e2 egfe|d2 d2 afdf|a2 f2 f2 a2|
b2 bg a2 af|gfed egfe|d2 cd e2 ag|f2 d2 d2:|

